!!!!SEGMENT: Ver2029-Infirmitatem_nostram.krn
!!!id: Ver2029
!!!AGN: Motet
!!!voices: 5
!!!COM: Philippe Verdelot
!!!OTL: Infirmitatem nostram
**kern	**kern	**kern	**kern	**kern
*part5	*part4	*part3	*part2	*part1
*staff5	*staff4	*staff3	*staff2	*staff1
*I"Bassus	*I"Tenor II	*I"Tenor I	*I"Altus	*I"Superius
*I'B	*I'T. II	*I'T. I	*I'A	*I'S
*clefF4	*clefGv2	*clefGv2	*clefGv2	*clefG2
*k[b-]	*k[b-]	*k[b-]	*k[b-]	*k[b-]
*F:	*F:	*F:	*F:	*F:
*M2/1	*M2/1	*M2/1	*M2/1	*M2/1
*met(C|)	*met(C|)	*met(C|)	*met(C|)	*met(C|)
=1	=1	=1	=1	=1
0r	0r	1G	0r	0r
.	.	[1B-y	.	.
=2	=2	=2	=2	=2
0r	0r	2B-]	0r	0r
.	.	2B-y	.	.
.	.	1c	.	.
=3	=3	=3	=3	=3
0r	0r	2B-y	0r	1d
.	.	1B-y	.	.
.	.	.	.	[1f
.	.	4A	.	.
.	.	4G	.	.
=4	=4	=4	=4	=4
1r	0r	1A	0r	2f]
.	.	.	.	2f
1GG	.	2G	.	1g
.	.	[2B-y	.	.
=5	=5	=5	=5	=5
1.BB-y	0r	4B-]	0r	2f
.	.	4A	.	.
.	.	4B-y	.	1f
.	.	4c	.	.
.	.	1d	.	.
2BB-y	.	.	.	4e
.	.	.	.	4d
=6	=6	=6	=6	=6
1C	1r	2r	0r	1e
.	.	2G	.	.
2BB-y	1D	[1B-y	.	[1d
[2BB-y	.	.	.	.
=7	=7	=7	=7	=7
2BB-]	1.F	2B-]	0r	1d]
4AA	.	2B-y	.	.
4GG	.	.	.	.
1AA	.	1c	.	1r
.	2F	.	.	.
=8	=8	=8	=8	=8
1GG	1G	2B-y	0r	1d
.	.	1B-y	.	.
1r	2F	.	.	[1f
.	[2F	4A	.	.
.	.	4G	.	.
=9	=9	=9	=9	=9
1r	2F]	1A	0r	2f]
.	4E	.	.	2f
.	4D	.	.	.
2r	1E	2G	.	1g
2GG	.	[2B-y	.	.
=10	=10	=10	=10	=10
1.BB-y	2.D	4B-]	0r	2f
.	.	4A	.	.
.	.	4B-y	.	1f
.	4E	4c	.	.
.	2F	1d	.	.
2BB-y	[2G	.	.	4e
.	.	.	.	4d
=11	=11	=11	=11	=11
1C	2G]	2r	0r	1e
.	4F	2G	.	.
.	4E	.	.	.
2BB-y	2F	[1B-y	.	[1d
[2BB-y	2D	.	.	.
=12	=12	=12	=12	=12
2BB-]	1.F	2B-]	0r	1d]
4AA	.	2B-y	.	.
4GG	.	.	.	.
1AA	.	1c	.	1r
.	2F	.	.	.
=13	=13	=13	=13	=13
0GG	1G	2B-y	0d	0r
.	.	1B-y	.	.
.	2D	.	.	.
.	[2G	4A	.	.
.	.	4G	.	.
=14	=14	=14	=14	=14
1D	4G]	1A	1d	0r
.	8F#iL	.	.	.
.	8EJ	.	.	.
.	2F#i	.	.	.
2r	2G	1G	1d	.
[2G	[2B-y	.	.	.
=15	=15	=15	=15	=15
2G]	2B-]	0D	0d	0r
2F	2A	.	.	.
2D	2F	.	.	.
[2F	[2A	.	.	.
=16	=16	=16	=16	=16
2F]	2A]	0r	0c	1r
4E	4G	.	.	.
4D	4F	.	.	.
1E	2G	.	.	2r
.	2G	.	.	[2g
=17	=17	=17	=17	=17
0D	[0A	1r	0d	2g]
.	.	.	.	2f
.	.	2r	.	2d
.	.	[2d	.	[2f
=18	=18	=18	=18	=18
0AA	0A]	2d]	0r	2f]
.	.	2c	.	4e
.	.	.	.	4d
.	.	2A	.	2e
.	.	[2c	.	2e
=19	=19	=19	=19	=19
0r	[0D	2c]	1.f	0d
.	.	4B-y	.	.
.	.	4A	.	.
.	.	2B-y	.	.
.	.	2B-y	2f	.
=20	=20	=20	=20	=20
0r	0D]	0A	1f	1r
.	.	.	1f	1a
=21	=21	=21	=21	=21
0r	1r	0r	1g	2b-y
.	.	.	.	2g
.	2r	.	2f	2.a
.	2A	.	[2e	.
.	.	.	.	4g
=22	=22	=22	=22	=22
0r	2B-y	1r	4e]	2f
.	.	.	4d	.
.	2G	.	1d	2g
.	1A	2r	.	1e
.	.	2A	2c#i	.
=23	=23	=23	=23	=23
1r	1r	2B-y	0d	0d
.	.	2G	.	.
1D	1F	2A	.	.
.	.	[2B-y	.	.
=24	=24	=24	=24	=24
2E	2G	4B-]	0r	1r
.	.	4G	.	.
2C	2E	2c	.	.
2.D	2.F	2B-y	.	2r
.	.	[2A	.	2a
4C	4E	.	.	.
=25	=25	=25	=25	=25
2BB-y	2D	4A]	0r	2b-y
.	.	4G	.	.
2C	2E	1G	.	2g
1AA	1C	.	.	1a
.	.	2F#i	.	.
=26	=26	=26	=26	=26
0GG	1D	1G	0d	2.b-y
.	.	.	.	4a
.	1r	2r	.	4g
.	.	.	.	4f
.	.	2G	.	2g
=27	=27	=27	=27	=27
1r	1D	1A	1d	2f
.	.	.	.	1d
1GG	1G	1B-y	1d	.
.	.	.	.	[2g
=28	=28	=28	=28	=28
1C	1E	1.c	1e	2g]
.	.	.	.	1e
1AA	[1A	.	1c	.
.	.	2F	.	[2a
=29	=29	=29	=29	=29
1.D	2A]	2.F	0d	4a]
.	.	.	.	4g
.	2D	.	.	4f
.	.	4G	.	4e
.	[1D	2A	.	2f
2GG	.	[2B-y	.	[2g
=30	=30	=30	=30	=30
0GG	1D]	4B-]	1r	4g]
.	.	4A	.	4a
.	.	4G	.	1b-y
.	.	4F	.	.
.	2r	1G	1d	.
.	[2G	.	.	4a
.	.	.	.	4g
=31	=31	=31	=31	=31
2r	2G]	1D	2.d	0a
1D	2F	.	.	.
.	.	.	4e	.
.	2D	2r	2f	.
2C	2E	[2c	[2e	.
=32	=32	=32	=32	=32
2AA	1F	2c]	2e]	0r
2BB-y	.	2B-y	1d	.
1C	1E	2G	.	.
.	.	2A	2c	.
=33	=33	=33	=33	=33
1GG	2r	1B-y	1d	2r
.	1G	.	.	2d
2r	.	[1A	1r	2d
[2D	2F	.	.	2d
=34	=34	=34	=34	=34
2D]	2D	1A]	0A	2f
2C	2E	.	.	1e
1D	1F	2r	.	.
.	.	2D	.	[2d
=35	=35	=35	=35	=35
1AA	1E	2E	1A	2d]
.	.	2E	.	2c#i
1D	[1D	1F	1A	[1d
=36	=36	=36	=36	=36
0GG	1D]	1G	1.B-y	0d_
.	2r	[1D	.	.
.	2G	.	4A	.
.	.	.	4G	.
=37	=37	=37	=37	=37
1r	2A	0D]	1F	1d]
.	2A	.	.	.
1GG	2.B-y	.	1G	2r
.	.	.	.	2d
.	4A	.	.	.
=38	=38	=38	=38	=38
2GG	2.G	2r	1B-y	2d
2GG	.	2G	.	2d
.	4F	.	.	.
1C	1E	2G	1c	2e
.	.	2G	.	[2g
=39	=39	=39	=39	=39
0D	0D	1d	0A	2g]
.	.	.	.	4f#i
.	.	.	.	4e
.	.	1d	.	1f#i
=40	=40	=40	=40	=40
2GG	2r	2B-y	0G	0g
2GG	2D	2.d	.	.
2GG	2D	.	.	.
.	.	4c	.	.
2GG	2D	4B-y	.	.
.	.	4A	.	.
=41	=41	=41	=41	=41
0C	2E	4G	0r	2r
.	.	4F	.	.
.	1G	4E	.	2g
.	.	4D	.	.
.	.	1E	.	2g
.	4F	.	.	2g
.	4E	.	.	.
=42	=42	=42	=42	=42
1AA	1F	1C	0r	2a
.	.	.	.	1cc
1GG	[1G	1D	.	.
.	.	.	.	4b-y
.	.	.	.	4a
=43	=43	=43	=43	=43
2r	1G]	2r	0d	1b-y
1GG	.	1G	.	.
.	2r	.	.	1g
2GG	[2B-y	2G	.	.
=44	=44	=44	=44	=44
2.BB-y	2B-]	2F	1d	0r
.	2B-y	2D	.	.
4C	.	.	.	.
2D	2A	2F	1d	.
4C	2D	2G	.	.
4BB-y	.	.	.	.
=45	=45	=45	=45	=45
2AA	2E	1A	1c	0r
2AA	2F	.	.	.
2GG	2.G	2r	1B-y	.
[2GG	.	[2B-y	.	.
.	4A	.	.	.
=46	=46	=46	=46	=46
4GG]	4B-y	2B-]	2.d	0r
4AA	4c	.	.	.
4BB-y	1d	2B-y	.	.
4C	.	.	4e	.
2.D	.	2A	2f	.
.	[2c	2G	[2e	.
4E	.	.	.	.
=47	=47	=47	=47	=47
2F	2c]	2A	2e]	2r
2G	4B-y	2B-y	1d	1g
.	4A	.	.	.
1E	1G	1c	.	.
.	.	.	2c	2g
=48	=48	=48	=48	=48
0D	1A	2.F	1d	2f
.	.	.	.	2d
.	.	4G	.	.
.	1F	2A	1r	2.f
.	.	2D	.	.
.	.	.	.	4g
=49	=49	=49	=49	=49
2r	2r	2F	0d	2a
2.GG	1B-y	2.G	.	1b-y
4AA	.	4F	.	.
4BB-y	2B-y	[2D	.	4a
4C	.	.	.	4g
=50	=50	=50	=50	=50
2D	2A	4D]	1d	2f
.	.	4C	.	.
2GG	2G	4D	.	1g
.	.	4E	.	.
1D	2A	1F	1d	.
.	2B-y	.	.	2f
=51	=51	=51	=51	=51
0C	2.c	1E	0e	2.g
.	8B-yL	.	.	4f
.	8AJ	.	.	.
.	2G	2r	.	1e
.	2G	2c	.	.
=52	=52	=52	=52	=52
0BB-y	0B-y	2d	0f	1d
.	.	2B-y	.	.
.	.	2.d	.	1r
.	.	4d	.	.
=53	=53	=53	=53	=53
1FF	2A	2c	1.f	0r
.	2A	2C	.	.
2BB-y	2B-y	2D	.	.
2C	2G	2E	2e	.
=54	=54	=54	=54	=54
2D	2.B-y	2F	1d	1r
2GG	.	2G	.	.
.	4B-y	.	.	.
1AA	1A	1E	1c	2r
.	.	.	.	[2a
=55	=55	=55	=55	=55
2r	1D	1F	1d	2a]
2D	.	.	.	2b-y
2E	1r	2G	2B-y	2g
2C	.	[2e-X	[2c	[2a
=56	=56	=56	=56	=56
2.E	1C	2e-]	4c]	2a]
.	.	.	4B-y	.
.	.	4d	4A	1g
4E	.	4c	4G	.
1D	1F	1d	1A	.
.	.	.	.	2f#i
=57	=57	=57	=57	=57
1GG	1D	1B-y	[0Gl	[0gl
[1C	[1E	[1c	.	.
=58	=58	=58	=58	=58
2C]	2E]	1c]	0G_	0g_
4BB-y	2E	.	.	.
4AA	.	.	.	.
1BB-y	1D	[1d	.	.
=59	=59	=59	=59	=59
0C	0E	2d]	0G_	0g_
.	.	4c	.	.
.	.	4B-y	.	.
.	.	1c	.	.
=60	=60	=60	=60	=60
00GGl	00Dl	00B-yl	00G]	00g]
==	==	==	==	==
*-	*-	*-	*-	*-
!!!system-decoration: [*]
!!!RDF**kern: i = editorial accidental
!!!RDF**kern: l = terminal long
!!!ENC: Benjamin Ory
!!!END: 2025/2/3
!!!EED: Benjamin Ory
!!!EEV: 2024/12/14
!!!YEC: Copyright 2025 Benjamin Ory, All Rights Reserved
!!!ONB: Translated from MusicXML on 2025/02/03